X: 1
T: Jenny's Welcome To Charlie
R: reel
M: 4/4
L: 1/8
K: Ddor
|D2 AB AGE^F|GEcE dEcE|D2 AB AGE^F|GEcE EDCE|
|D2 AB AGE^F|GEcE d2 cd|eddc AGE^F|1 GEcE EDCE:|2 GEcE EDD2|
|:f3 d efed|cA (3AAA cA (3AAA|f2 fd edcd|eaag edde|
|~f3 d efed|cAAB c2 cd|eddc AGE^F|GEcE EDD2:|
|:a2 ab age^f|~g3 a gedg|eaag aged|eaag edde|
|~a3 b age^f|~g3 a gedB|A2 (3Bcd eddc|AcGE EDD2:|
|:Addc defd|AccB cdec|Addc d2 cd|eaag eddc|
|~d3 e dcAB|~c3 d cAGE|D2 (3E^FG Addc|1 AcGE EDD2:|2 AcGE EDCE||


Tune 370	Setting 13179

